src/lib/packages/icons/src/assets/filled/message-dots-times.svg

<svg width="24" height="24" viewBox="0 0 24 24" fill="none" xmlns="http://www.w3.org/2000/svg">
<path d="M18 3H6C4 3 3 4 3 6V21L6 18H13.7471C13.9811 18 14.057 17.776 14.042 17.661C14.013 17.444 14.001 17.222 14.001 17C14.001 14.24 16.241 12 19.001 12C19.558 12 20.0969 12.0921 20.5979 12.2581C20.7959 12.3241 21.001 12.188 21.001 11.979V6C21 4 20 3 18 3ZM8.02002 11.5C7.46802 11.5 7.01489 11.052 7.01489 10.5C7.01489 9.948 7.45801 9.5 8.01001 9.5H8.02002C8.57302 9.5 9.02002 9.948 9.02002 10.5C9.02002 11.052 8.57202 11.5 8.02002 11.5ZM12.02 11.5C11.468 11.5 11.0149 11.052 11.0149 10.5C11.0149 9.948 11.458 9.5 12.01 9.5H12.02C12.573 9.5 13.02 9.948 13.02 10.5C13.02 11.052 12.572 11.5 12.02 11.5ZM16.02 11.5C15.468 11.5 15.0149 11.052 15.0149 10.5C15.0149 9.948 15.458 9.5 16.01 9.5H16.02C16.573 9.5 17.02 9.948 17.02 10.5C17.02 11.052 16.572 11.5 16.02 11.5ZM21.53 18.47C21.823 18.763 21.823 19.238 21.53 19.531C21.384 19.677 21.192 19.751 21 19.751C20.808 19.751 20.616 19.678 20.47 19.531L19 18.061L17.53 19.531C17.384 19.677 17.192 19.751 17 19.751C16.808 19.751 16.616 19.678 16.47 19.531C16.177 19.238 16.177 18.763 16.47 18.47L17.9399 17L16.47 15.53C16.177 15.237 16.177 14.762 16.47 14.469C16.763 14.176 17.238 14.176 17.531 14.469L19.001 15.939L20.4709 14.469C20.7639 14.176 21.239 14.176 21.532 14.469C21.825 14.762 21.825 15.237 21.532 15.53L20.062 17L21.53 18.47Z" fill="currentColor"/>
</svg>

<svg xmlns="http://www.w3.org/2000/svg" width="24" height="24" fill="none"><path fill="currentColor" d="M18 3H6C4 3 3 4 3 6v15l3-3h7.747c.234 0 .31-.224.295-.339a5.003 5.003 0 0 1-.041-.661c0-2.76 2.24-5 5-5a5.08 5.08 0 0 1 1.597.258.3.3 0 0 0 .402-.278V6c0-2-1-3-3-3Zm-9.98 8.5a1.005 1.005 0 0 1-1.005-1c0-.552.443-1 .995-1h.01a1 1 0 1 1 0 2Zm4 0a1.005 1.005 0 0 1-1.005-1c0-.552.443-1 .995-1h.01a1 1 0 1 1 0 2Zm4 0a1.005 1.005 0 0 1-1.005-1c0-.552.443-1 .995-1h.01a1 1 0 1 1 0 2Zm5.51 6.97a.75.75 0 0 1-1.06 1.061L19 18.061l-1.47 1.47a.748.748 0 0 1-1.06 0 .75.75 0 0 1 0-1.061L17.94 17l-1.47-1.47a.75.75 0 1 1 1.061-1.061l1.47 1.47 1.47-1.47a.75.75 0 0 1 1.061 1.061L20.062 17l1.468 1.47Z"/></svg>
